; generated by PrusaSlicer 2.5.0+win64 on 2023-01-26 at 21:51:39 UTC


;
;
; 

; external perimeters extrusion width = 0.45mm
; perimeters extrusion width = 0.45mm
; infill extrusion width = 0.45mm
; solid infill extrusion width = 0.45mm
; top infill extrusion width = 0.40mm
; first layer extrusion width = 0.40mm

; external perimeters extrusion width = 0.45mm
; perimeters extrusion width = 0.45mm
; infill extrusion width = 0.45mm
; solid infill extrusion width = 0.45mm
; top infill extrusion width = 0.40mm
; first layer extrusion width = 0.40mm

; external perimeters extrusion width = 0.45mm
; perimeters extrusion width = 0.45mm
; infill extrusion width = 0.45mm
; solid infill extrusion width = 0.45mm
; top infill extrusion width = 0.40mm
; first layer extrusion width = 0.40mm

M73 P0 R64
M73 Q0 S66
M201 X1000 Y1000 Z200 E5000 ; sets maximum accelerations, mm/sec^2
M203 X200 Y200 Z12 E120 ; sets maximum feedrates, mm / sec
M204 P1250 R1250 T1250 ; sets acceleration (P, T) and retract acceleration (R), mm/sec^2
M205 X8.00 Y8.00 Z0.40 E4.50 ; sets the jerk limits, mm/sec
M205 S0 T0 ; sets the minimum extruding and travel feed rate, mm/sec
M107
;TYPE:Custom
M862.3 P "MK3S" ; printer model check
M862.1 P0.4 ; nozzle diameter check
M115 U3.11.0 ; tell printer latest fw version
G90 ; use absolute coordinates
M83 ; extruder relative mode
M104 S215 ; set extruder temp
M140 S60 ; set bed temp
M190 S60 ; wait for bed temp
M109 S215 ; wait for extruder temp
G28 W ; home all without mesh bed level
G80 ; mesh bed leveling

G1 Z0.2 F720
G1 Y-3 F1000 ; go outside print area
G92 E0
G1 X60 E9 F1000 ; intro line
G1 X100 E12.5 F1000 ; intro line

G92 E0
M221 S95

; Don't change E values below. Excessive value can damage the printer.

G21 ; set units to millimeters
G90 ; use absolute coordinates
M83 ; use relative distances for extrusion
; Filament gcode
M107
;LAYER_CHANGE
;Z:0.2
;HEIGHT:0.2
;BEFORE_LAYER_CHANGE
G92 E0.0
;0.2


G1 E-.8 F2100
G1 Z.4 F7800
;AFTER_LAYER_CHANGE
;0.2
G1 X67.105 Y92.372
G1 Z.2
G1 E.8 F2100
;TYPE:Skirt/Brim
;WIDTH:0.4
G1 F1800
G1 X111.463 Y64.603 E1.55384
G1 X113.548 Y63.766 E.06669
G1 X114.881 Y63.634 E.03978
G1 X132.551 Y63.758 E.52466
G1 X134.76 Y64.171 E.06669
G1 X136.939 Y65.558 E.07669
G1 X168.375 Y96.128 E1.30196
G1 X171.953 Y99.705 E.15022
G1 X173.236 Y101.549 E.06669
G1 X173.815 Y104.2 E.08057
G1 X173.815 Y121.871 E.52466
G1 X173.418 Y124.082 E.06669
G1 X171.953 Y126.366 E.08057
G1 X168.439 Y129.881 E.14758
G1 X166.595 Y131.164 E.06669
G1 X163.943 Y131.743 E.08057
G1 X146.273 Y131.743 E.52466
G1 X70.233 Y128.812 E2.25939
G1 X68.039 Y128.33 E.06669
G1 X65.983 Y126.955 E.07344
G1 X62.469 Y123.44 E.14758
G1 X61.186 Y121.596 E.06669
G1 X60.607 Y118.945 E.08057
G1 X60.607 Y101.275 E.52466
G1 X61.004 Y99.064 E.06669
G1 X62.469 Y96.78 E.08057
G1 X65.983 Y93.265 E.14758
G1 X67.058 Y92.409 E.0408
;WIPE_START
G1 F6240
G1 X69.073 Y91.147 E-.76
;WIPE_END
G1 E-.04 F2100
G1 Z.6 F7800
G1 X70.243 Y98.894
G1 Z.2
G1 E.8 F2100
G1 F1800
G1 X71.253 Y98.461 E.0326
G1 X72.324 Y98.242 E.03245
G1 X86.281 Y98.239 E.41441
G1 X87.358 Y98.457 E.03264
G1 X88.38 Y98.892 E.03297
G1 X89.829 Y100.085 E.05573
G1 X90.736 Y101.471 E.04918
G1 X91.151 Y102.888 E.04386
G1 X91.199 Y116.95 E.41751
G1 X90.865 Y118.443 E.04542
G1 X90.117 Y119.792 E.04581
G1 X88.379 Y121.329 E.0689
G1 X87.287 Y121.785 E.03512
G1 X86.128 Y121.995 E.03499
G1 X72.471 Y121.995 E.40548
G1 X70.981 Y121.661 E.04534
G1 X69.632 Y120.913 E.0458
G1 X68.095 Y119.175 E.0689
G1 X67.638 Y118.083 E.03512
G1 X67.429 Y116.924 E.03499
G1 X67.429 Y103.267 E.40548
G1 X67.763 Y101.777 E.04534
G1 X68.511 Y100.428 E.0458
G1 X70.198 Y98.933 E.06693
G1 X70.411 Y99.21 F7800
G1 F1800
G1 X71.343 Y98.807 E.03013
G1 X72.378 Y98.596 E.03136
G1 X86.228 Y98.592 E.41123
G1 X87.269 Y98.803 E.03155
G1 X88.215 Y99.21 E.03056
G1 X89.58 Y100.342 E.05266
G1 X90.422 Y101.642 E.04599
G1 X90.801 Y102.963 E.0408
G1 X90.842 Y116.931 E.41473
G1 X90.523 Y118.338 E.04285
G1 X89.82 Y119.591 E.04264
G1 X88.213 Y121.012 E.0637
G1 X87.203 Y121.438 E.03253
G1 X86.111 Y121.638 E.03297
G1 X72.491 Y121.638 E.40439
G1 X71.086 Y121.319 E.0428
G1 X69.833 Y120.616 E.04264
G1 X68.412 Y119.009 E.0637
G1 X67.986 Y118 E.03253
G1 X67.786 Y116.907 E.03297
G1 X67.786 Y103.287 E.40439
G1 X68.105 Y101.882 E.0428
G1 X68.808 Y100.629 E.04264
G1 X70.366 Y99.25 E.0618
G1 X70.579 Y99.527 F7800
G1 F1800
G1 X71.467 Y99.143 E.02872
G1 X72.43 Y98.949 E.02917
G1 X86.176 Y98.946 E.40812
G1 X87.146 Y99.138 E.02936
G1 X88.049 Y99.527 E.02921
G1 X89.329 Y100.598 E.04954
G1 X90.107 Y101.811 E.04279
G1 X90.451 Y103.035 E.03775
G1 X90.484 Y116.911 E.41198
G1 X90.181 Y118.232 E.04026
G1 X89.525 Y119.388 E.03947
G1 X88.047 Y120.694 E.05854
G1 X87.083 Y121.101 E.03108
G1 X86.095 Y121.281 E.0298
G1 X72.512 Y121.281 E.40331
G1 X71.192 Y120.977 E.04022
G1 X70.036 Y120.321 E.03947
G1 X68.73 Y118.843 E.05854
G1 X68.323 Y117.879 E.03108
G1 X68.143 Y116.891 E.0298
G1 X68.143 Y103.308 E.40331
G1 X68.447 Y101.988 E.04022
G1 X69.103 Y100.832 E.03947
G1 X70.534 Y99.566 E.05671
G1 X70.746 Y99.843 F7800
G1 F1800
G1 X71.591 Y99.478 E.02731
G1 X72.482 Y99.303 E.02696
G1 X86.125 Y99.3 E.40508
G1 X87.023 Y99.474 E.02715
G1 X87.884 Y99.845 E.02783
G1 X89.078 Y100.852 E.04639
G1 X89.79 Y101.979 E.03958
G1 X90.1 Y103.106 E.03472
G1 X90.127 Y116.891 E.40929
G1 X89.857 Y118.079 E.03616
G1 X89.229 Y119.186 E.03781
G1 X87.881 Y120.377 E.05341
G1 X86.998 Y120.754 E.02849
G1 X86.079 Y120.923 E.02775
G1 X72.532 Y120.923 E.40223
G1 X71.345 Y120.653 E.03613
G1 X70.238 Y120.025 E.03781
G1 X69.047 Y118.677 E.05341
G1 X68.67 Y117.794 E.02849
G1 X68.5 Y116.875 E.02775
G1 X68.5 Y103.328 E.40223
G1 X68.77 Y102.141 E.03613
G1 X69.399 Y101.034 E.03781
G1 X70.701 Y99.883 E.0516
G1 X70.915 Y100.159 F7800
G1 F1800
G1 X71.679 Y99.825 E.02475
G1 X72.534 Y99.657 E.02586
G1 X86.107 Y99.657 E.40302
G1 X86.934 Y99.82 E.02502
M73 Q0 S65
G1 X87.716 Y100.161 E.02534
G1 X88.824 Y101.105 E.04323
G1 X89.473 Y102.144 E.03636
G1 X89.749 Y103.176 E.03171
G1 X89.77 Y116.871 E.40663
G1 X89.516 Y117.972 E.03354
G1 X88.934 Y118.982 E.03462
G1 X87.713 Y120.061 E.04837
G1 X86.912 Y120.407 E.02591
G1 X86.062 Y120.566 E.02568
G1 X72.552 Y120.566 E.40112
G1 X71.452 Y120.312 E.03353
G1 X70.441 Y119.73 E.03462
G1 X69.363 Y118.509 E.04837
G1 X69.017 Y117.708 E.02591
G1 X68.857 Y116.858 E.02568
G1 X68.857 Y103.348 E.40112
G1 X69.112 Y102.248 E.03353
G1 X69.694 Y101.237 E.03462
G1 X70.87 Y100.199 E.0466
G1 X71.084 Y100.475 F7800
G1 F1800
G1 X71.803 Y100.16 E.02332
G1 X72.584 Y100.011 E.02358
G1 X86.089 Y100.014 E.40099
G1 X86.843 Y100.166 E.02286
G1 X87.547 Y100.477 E.02284
G1 X88.57 Y101.357 E.04007
G1 X89.154 Y102.308 E.03313
G1 X89.398 Y103.243 E.0287
G1 X89.413 Y116.85 E.40401
G1 X89.174 Y117.863 E.0309
G1 X88.641 Y118.777 E.03143
G1 X87.544 Y119.745 E.04343
G1 X86.824 Y120.06 E.02332
G1 X86.045 Y120.209 E.02357
G1 X72.573 Y120.209 E.39998
G1 X71.561 Y119.971 E.03089
G1 X70.646 Y119.437 E.03143
G1 X69.679 Y118.34 E.04343
G1 X69.364 Y117.62 E.02332
G1 X69.215 Y116.841 E.02357
G1 X69.215 Y103.369 E.39998
G1 X69.453 Y102.357 E.03089
G1 X69.987 Y101.443 E.03143
G1 X71.039 Y100.515 E.04165
G1 X71.252 Y100.791 F7800
G1 F1800
G1 X71.928 Y100.495 E.0219
G1 X72.6 Y100.368 E.02031
G1 X86.07 Y100.371 E.39994
G1 X86.751 Y100.512 E.02065
G1 X87.376 Y100.791 E.02033
G1 X88.314 Y101.607 E.03689
G1 X88.834 Y102.469 E.02988
G1 X89.046 Y103.308 E.02572
G1 X89.056 Y116.829 E.40144
G1 X88.834 Y117.753 E.02821
G1 X88.348 Y118.571 E.02825
G1 X87.375 Y119.429 E.03852
G1 X86.7 Y119.725 E.0219
G1 X86.028 Y119.852 E.0203
G1 X72.595 Y119.852 E.39885
G1 X71.671 Y119.63 E.02821
G1 X70.853 Y119.144 E.02825
G1 X69.995 Y118.171 E.03852
G1 X69.699 Y117.496 E.0219
G1 X69.572 Y116.824 E.0203
G1 X69.572 Y103.391 E.39885
G1 X69.794 Y102.467 E.0282
G1 X70.279 Y101.649 E.02825
G1 X71.207 Y100.831 E.03674
G1 X71.423 Y101.106 F7800
G1 F1800
G1 X72.017 Y100.842 E.01931
G1 X72.618 Y100.725 E.01817
G1 X86.052 Y100.728 E.39888
G1 X86.623 Y100.846 E.01732
G1 X87.206 Y101.106 E.01893
G1 X88.056 Y101.856 E.03365
G1 X88.513 Y102.627 E.02662
G1 X88.694 Y103.371 E.02276
G1 X88.699 Y116.809 E.39897
G1 X88.513 Y117.594 E.02396
G1 X88.056 Y118.364 E.0266
G1 X87.205 Y119.114 E.03366
G1 X86.611 Y119.378 E.01931
G1 X86.01 Y119.495 E.01816
G1 X72.615 Y119.495 E.39772
G1 X71.83 Y119.309 E.02397
G1 X71.06 Y118.852 E.0266
G1 X70.31 Y118.001 E.03366
G1 X70.046 Y117.407 E.01931
G1 X69.929 Y116.806 E.01816
G1 X69.929 Y103.411 E.39772
G1 X70.115 Y102.626 E.02396
G1 X70.572 Y101.856 E.0266
G1 X71.378 Y101.146 E.03188
G1 X71.596 Y101.419 F7800
G1 F1800
G1 X72.108 Y101.188 E.0167
G1 X72.636 Y101.082 E.01598
G1 X86.033 Y101.085 E.39777
G1 X86.529 Y101.191 E.01507
M73 P1 R64
G1 X87.032 Y101.419 E.0164
G1 X87.796 Y102.102 E.03041
G1 X88.19 Y102.781 E.02333
G1 X88.342 Y103.432 E.01982
G1 X88.342 Y116.788 E.39658
G1 X88.19 Y117.439 E.01982
M73 Q1 S65
G1 X87.796 Y118.118 E.02333
G1 X87.032 Y118.801 E.03041
G1 X86.52 Y119.032 E.0167
G1 X85.992 Y119.138 E.01597
G1 X72.635 Y119.138 E.39658
G1 X71.985 Y118.987 E.01982
G1 X71.306 Y118.592 E.02333
G1 X70.623 Y117.828 E.03041
G1 X70.391 Y117.316 E.0167
G1 X70.286 Y116.788 E.01597
G1 X70.286 Y103.432 E.39658
G1 X70.437 Y102.781 E.01982
G1 X70.832 Y102.102 E.02333
G1 X71.551 Y101.459 E.02863
G1 X71.771 Y101.731 F7800
G1 F1800
G1 X72.202 Y101.533 E.01407
G1 X72.654 Y101.439 E.01373
G1 X86.012 Y101.442 E.39662
G1 X86.432 Y101.535 E.01276
G1 X86.856 Y101.731 E.01388
G1 X87.533 Y102.346 E.02715
G1 X87.867 Y102.934 E.02005
G1 X87.985 Y103.451 E.01577
G1 X87.985 Y116.769 E.39541
G1 X87.867 Y117.286 E.01577
G1 X87.533 Y117.874 E.02005
G1 X86.857 Y118.489 E.02715
G1 X86.426 Y118.687 E.01407
G1 X85.973 Y118.781 E.01373
G1 X72.655 Y118.781 E.39544
G1 X72.137 Y118.663 E.01577
G1 X71.55 Y118.33 E.02005
G1 X70.935 Y117.653 E.02715
G1 X70.737 Y117.222 E.01407
G1 X70.643 Y116.77 E.01373
G1 X70.643 Y103.451 E.39544
G1 X70.761 Y102.934 E.01577
G1 X71.094 Y102.346 E.02005
G1 X71.727 Y101.772 E.02537
G1 X71.95 Y102.042 F7800
G1 F1800
G1 X72.298 Y101.877 E.01145
G1 X72.674 Y101.796 E.01141
G1 X85.991 Y101.799 E.3954
G1 X86.332 Y101.878 E.01037
G1 X86.678 Y102.042 E.01137
G1 X87.269 Y102.587 E.02388
G1 X87.541 Y103.082 E.01676
G1 X87.628 Y103.47 E.01182
G1 X87.628 Y116.749 E.39427
G1 X87.541 Y117.138 E.01182
G1 X87.269 Y117.633 E.01676
G1 X86.678 Y118.178 E.02388
G1 X86.329 Y118.343 E.01145
G1 X85.954 Y118.424 E.01141
G1 X72.674 Y118.424 E.39428
G1 X72.286 Y118.337 E.01182
G1 X71.791 Y118.065 E.01676
G1 X71.246 Y117.474 E.02388
G1 X71.081 Y117.126 E.01145
G1 X71 Y116.75 E.01141
G1 X71 Y103.47 E.39428
G1 X71.087 Y103.082 E.01182
G1 X71.359 Y102.587 E.01676
G1 X71.906 Y102.082 E.0221
G1 X72.129 Y102.352 F7800
G1 F1800
G1 X72.432 Y102.209 E.00997
G1 X72.693 Y102.153 E.00791
G1 X85.971 Y102.157 E.39424
G1 X86.196 Y102.209 E.00688
G1 X86.499 Y102.352 E.00995
G1 X87.001 Y102.825 E.02048
G1 X87.214 Y103.226 E.01346
G1 X87.271 Y103.489 E.008
G1 X87.271 Y116.731 E.39317
G1 X87.214 Y116.994 E.008
G1 X87.001 Y117.395 E.01346
G1 X86.499 Y117.868 E.02048
G1 X86.196 Y118.011 E.00997
G1 X85.935 Y118.067 E.00791
G1 X72.693 Y118.067 E.39318
G1 X72.43 Y118.01 E.008
G1 X72.029 Y117.797 E.01346
G1 X71.556 Y117.295 E.02048
G1 X71.413 Y116.992 E.00997
G1 X71.357 Y116.731 E.00791
G1 X71.357 Y103.489 E.39318
G1 X71.414 Y103.226 E.008
G1 X71.627 Y102.825 E.01346
G1 X72.085 Y102.393 E.0187
G1 X72.309 Y102.662 F7800
G1 F1800
G1 X72.565 Y102.541 E.00843
G1 X72.711 Y102.51 E.00441
G1 X85.95 Y102.514 E.39308
G1 X86.06 Y102.54 E.00338
G1 X86.319 Y102.662 E.00849
G1 X86.73 Y103.059 E.01695
G1 X86.884 Y103.364 E.01014
G1 X86.914 Y103.507 E.00434
G1 X86.914 Y116.713 E.39211
G1 X86.884 Y116.856 E.00434
G1 X86.73 Y117.161 E.01014
G1 X86.319 Y117.558 E.01695
G1 X86.062 Y117.679 E.00843
G1 X85.917 Y117.71 E.00441
G1 X72.711 Y117.71 E.39211
G1 X72.568 Y117.68 E.00434
G1 X72.263 Y117.526 E.01014
G1 X71.866 Y117.115 E.01695
G1 X71.745 Y116.859 E.00843
G1 X71.714 Y116.713 E.00441
G1 X71.714 Y103.507 E.39211
G1 X71.744 Y103.364 E.00434
G1 X71.898 Y103.059 E.01014
G1 X72.265 Y102.704 E.01517
G1 X72.49 Y102.971 F7800
G1 F1800
G1 X72.727 Y102.867 E.00768
G1 X85.9 Y102.867 E.39112
G1 X86.137 Y102.971 E.00768
G1 X86.453 Y103.286 E.01325
G1 X86.557 Y103.523 E.00768
G1 X86.557 Y116.696 E.39112
G1 X86.453 Y116.933 E.00768
G1 X86.137 Y117.249 E.01325
G1 X85.9 Y117.353 E.00768
G1 X72.727 Y117.353 E.39112
G1 X72.49 Y117.249 E.00768
G1 X72.175 Y116.933 E.01325
G1 X72.071 Y116.697 E.00768
G1 X72.071 Y103.523 E.39112
G1 X72.175 Y103.286 E.00768
G1 X72.448 Y103.013 E.01147
G1 X72.7 Y103.266 F7800
G1 F1800
G1 X72.78 Y103.224 E.00268
G1 X85.847 Y103.224 E.38797
G1 X85.913 Y103.252 E.00211
G1 X86.172 Y103.511 E.01089
G1 X86.199 Y103.577 E.00211
G1 X86.199 Y116.643 E.38797
G1 X86.172 Y116.709 E.00211
G1 X85.913 Y116.968 E.01089
G1 X85.847 Y116.996 E.00211
G1 X72.78 Y116.996 E.38797
G1 X72.715 Y116.968 E.00211
G1 X72.455 Y116.709 E.01089
G1 X72.428 Y116.643 E.00211
G1 X72.428 Y103.577 E.38797
G1 X72.455 Y103.511 E.00211
G1 X72.658 Y103.308 E.00851
G1 X72.89 Y103.581 F7800
G1 F1800
G1 X85.738 Y103.581 E.38147
G1 X85.842 Y103.686 E.00439
G1 X85.842 Y116.534 E.38147
G1 X85.738 Y116.639 E.00439
G1 X72.89 Y116.639 E.38147
G1 X72.785 Y116.534 E.00439
G1 X72.785 Y103.686 E.38147
G1 X72.847 Y103.624 E.00261
;WIPE_START
G1 F6240
G1 X75.225 Y103.616 E-.76
;WIPE_END
G1 E-.04 F2100
G1 Z.6 F7800
G1 X112.292 Y82.349
G1 Z.2
G1 E.8 F2100
G1 F1800
G1 X111.745 Y80.566 E.05539
G1 X111.819 Y74.937 E.16715
G1 X112.167 Y73.81 E.03501
M73 P1 R63
G1 X112.756 Y72.77 E.03551
G1 X113.931 Y71.579 E.04966
G1 X114.791 Y71.024 E.03038
G1 X116.156 Y70.559 E.04281
G1 X117.556 Y70.477 E.04166
G1 X130.513 Y70.566 E.38471
G1 X132.105 Y70.953 E.04864
G1 X133.537 Y71.822 E.04974
G1 X134.291 Y72.597 E.0321
G1 X134.911 Y73.506 E.03268
G1 X135.493 Y75.379 E.05823
G1 X135.457 Y80.657 E.15672
G1 X135.145 Y81.916 E.03852
G1 X134.428 Y83.209 E.04388
G1 X133.525 Y84.158 E.03889
G1 X132.48 Y84.872 E.03758
G1 X130.485 Y85.446 E.06164
G1 X116.615 Y85.336 E.41182
G1 X115.35 Y85.05 E.03851
G1 X114.174 Y84.452 E.03917
G1 X113.012 Y83.402 E.0465
G1 X112.326 Y82.399 E.03609
G1 X112.625 Y82.216 F7800
G1 F1800
G1 X112.102 Y80.542 E.05207
G1 X112.176 Y74.968 E.16551
G1 X112.501 Y73.936 E.03212
G1 X113.055 Y72.967 E.03313
G1 X114.143 Y71.867 E.04594
G1 X114.929 Y71.354 E.02789
G1 X116.202 Y70.914 E.03998
G1 X117.56 Y70.834 E.04039
G1 X130.489 Y70.923 E.3839
G1 X131.993 Y71.293 E.04597
G1 X133.297 Y72.088 E.04534
G1 X134.024 Y72.834 E.03096
G1 X134.6 Y73.684 E.03047
G1 X135.143 Y75.457 E.05506
G1 X135.106 Y80.593 E.1525
G1 X134.82 Y81.764 E.03579
G1 X134.126 Y83.015 E.04247
G1 X133.306 Y83.875 E.03528
G1 X132.351 Y84.537 E.03451
G1 X130.461 Y85.089 E.05846
G1 X116.638 Y84.979 E.41045
G1 X115.452 Y84.707 E.03611
G1 X114.358 Y84.146 E.03651
G1 X113.294 Y83.181 E.04265
G1 X112.659 Y82.265 E.03309
G1 X112.953 Y82.063 F7800
G1 F1800
G1 X112.46 Y80.518 E.04816
G1 X112.524 Y75.05 E.16235
G1 X112.836 Y74.062 E.03075
G1 X113.352 Y73.166 E.03071
G1 X114.382 Y72.133 E.0433
G1 X115.104 Y71.666 E.02555
G1 X116.293 Y71.26 E.0373
G1 X117.573 Y71.191 E.03807
G1 X130.466 Y71.28 E.38282
G1 X131.832 Y71.613 E.04173
G1 X133.058 Y72.354 E.04254
G1 X133.738 Y73.048 E.02886
G1 X134.29 Y73.862 E.0292
G1 X134.786 Y75.482 E.05029
G1 X134.749 Y80.569 E.15106
G1 X134.48 Y81.655 E.03322
G1 X133.852 Y82.785 E.03838
G1 X133.061 Y83.615 E.03405
G1 X132.173 Y84.227 E.03202
G1 X130.438 Y84.732 E.05364
G1 X116.699 Y84.627 E.40795
G1 X115.555 Y84.364 E.03485
G1 X114.544 Y83.84 E.0338
G1 X113.55 Y82.932 E.03997
G1 X112.987 Y82.113 E.02952
G1 X113.281 Y81.912 F7800
G1 F1800
G1 X113.244 Y81.857 E.00197
G1 X112.817 Y80.493 E.04243
G1 X112.873 Y75.131 E.15922
G1 X113.156 Y74.221 E.02829
G1 X113.622 Y73.401 E.02801
G1 X114.621 Y72.4 E.04199
G1 X115.278 Y71.979 E.02317
G1 X116.383 Y71.607 E.03463
G1 X117.585 Y71.547 E.03575
G1 X130.442 Y71.637 E.38175
G1 X131.719 Y71.953 E.03905
G1 X132.818 Y72.62 E.03817
G1 X133.471 Y73.286 E.02771
G1 X133.979 Y74.04 E.02697
G1 X134.429 Y75.506 E.04556
